X:9
T:My Dear durst I but but M-w you
Z:Jack Campin <http://www.campin.me.uk/>
S:George Skene's MS of 1715, NLS Adv.5.2.21 (fiddle tunes part)
M:C|
L:1/8
K:G
A|G/G/G GE A2AB|G/G/G GE GBGE       |GBGE     A2AB|G/G/G GE    G3         :|
B|G/G/G Bd eAAB|G/G/G BG dGBd       |e/e/e dB eAAB|G/G/G GE    G3         :|
g|e/g/f ge a2ab|g>age    g/e/g/a/ ge|g>age    a2ab|g>age       g/g/g     g:|
B|G/G/G Bd eAAB|G/G/G BG dGBd       |e/f/g Bd eAAB|G/G/G GE   [g2B2D2G,2]g:|
